X:1
T:Étude Op. 10 No. 12 in C minor
T:Étude Op. 10 No. 12 in C minor
T:"Revolutionary"
T:Frédéric Chopin
C:Frédéric Chopin
%%score { ( 1 3 4 ) | 2 }
L:1/8
Q:1/4=160
M:4/4
K:Eb
V:1 treble nm="鋼琴" snm="Pno."
V:3 treble 
V:4 treble 
V:2 bass 
V:1
!f!"^Allegro con fuoco" !>![=Bdg=b]4 z4 | z4 z2!>(! ([Aefa]>!>)![Gg]) |!f! !>![dfgd']4 z4 | %3
 z4 z2!>(! ([Aefa]>!>)![Gg]) | %4
 .[fgd'f']"_con fuoco" (!>!a'/g'/ !>!f'/d'/e'/d'/ !>!=b/g/a/g/ !>!f/d/e/d/ | %5
 !>!=B/G/A/G/ !>!F/D/E/D/[I:staff +1] !>!=B,/G,/A,/G,/ !>!F,/D,/E,/D,/ | %6
 C,/=B,,/)(G,/F,/ E,/D,/E,/D,/ C,/B,,/)(_B,/A,/ G,/F,/G,/F,/ | %7
 E,/D,/)(E/D/ C/=B,/C/B,/ A,/G,/A,/G,/ F,/E,/F,/E,/ | C,)[I:staff -1] z z2 z4 | %9
 z4 z!f! z/!<(! ([cc']<[dd'][ee']/)!<)! | !>![ee']4 z!p! z/!<(! [Gceg]<[Gceg][Gceg]/!<)! | %11
!>(! (([Ac-e-a]4!>)! [Gceg]))!f! z/!<(! ([cc']<[dd'][ee']/)!<)! | %12
 !>![ee']4 z!p! z/!<(! [Gceg]<[Gceg][Gceg]/!<)! |"^ten." ([=Ace=a]8 | %14
 .[d=ad']) z !>![Gdg]2 z z/ ([G_dg]<!>![_Ad_a][Gdg]/) | %15
 ([Gcg][cc']/) z/ !>![Fcf]2 z z/ ([Fcf]<!>![Gcg][Fcf]/) | !>![=Ec=e]6- [Ece]>[_E_e] | =B4 z4 | z8 | %19
 z4 z!p! z/!<(! ([cc']<[dd'][ee']/)!<)! | !>![ee']4 z!p! z/!<(! [Gceg]<[Gceg][Gceg]/!<)! | %21
 (([Ac-e-a]4 [Gceg])) z/"_cresc." ([cc']<[dd'][ee']/) | %22
 !>![ee']4 z!p! z/!<(! [Gceg]<[Gceg]!<)![Gceg]/ |"^ten." [=Aef=a]8 | %24
!p! [Bfb]3 [Bfb]2"_cresc." [Bgb]2 [=Bg=b]- | %25
 [Bgb] [cg_bc']2 [^cb^c']2"_stretto" [dbd'][ebe'][=eb=e'] | !>![fbd'f']4 [dfbd']2!>(! [ef=a]2!>)! | %27
 z8 |!f! !>![=B^d^g=b]6!<(! ([^D^G=B^d]>[^E^e])!<)! | !>![^F^A^d^f]6!<(! ([Ff]>[^G^g])!<)! | %30
 !>![=A^c^f=a]6!<(! ([^C^FAc]>[^D^d])!<)! | !>![=E^G^c=e]6!<(! ([Ee]>[^F^f])!<)! | %32
 !>![^G^d^f^g]6!<(! ([Gdfg]>!<)![^A^a] | %33
 .[_c=f_a_c']2)"_cresc." !>![_Bfa_b]4!<(! ([Bfab]>!<)![=c=c'] | .[_dgb_d']2) !>![cgbc']2 z4 | z8 | %36
!ff! ([ac'f'a']4 [fc'f']2 [cfc']2) | ((!>![Bf-b]4 [Afa]2)) z2 | ([ac'f'a']4 [fc'f']2 [cfc']2) | %39
 !>![cfc']6!<(! ([=Bf=b]>!<)![cc']) |!ff! !>![df=bd']4 z4 | z4 z2 ([Aefa]>[Gg]) | !>![fgd'f']4 z4 | %43
 z4 z2!>(! ([Aefa]>!>)![Gg]) | .[fgd'g'] (!>!a'/g'/ !>!f'/d'/e'/d'/ !>!=b/g/a/g/ !>!f/d/e/d/ | %45
 !>!=B/G/A/G/ !>!F/D/E/D/[I:staff +1] !>!=B,/G,/A,/G,/ !>!F,/D,/E,/D,/ | %46
 C,/=B,,/)(G,/F,/ E,/D,/E,/D,/ C,/B,,/)(_B,/A,/ G,/F,/G,/F,/ | %47
 E,/D,/)(E/D/ C/=B,/C/B,/ A,/G,/A,/G,/ F,/E,/F,/E,/ | C,)[I:staff -1] z z2 z4 | %49
 z4 z!f! z/!<(! ([cc']/ (3[^c^c'][dd']3/2!<)![ee']/) | %50
 !>![ee']4 z!p! z/ [Gceg]<!<(![Gceg][Gceg]/!<)! | %51
 ((!>![Ac-e-a]4 (3.[Gceg])) ([=B=b][cc']!<(! (3:2:4[^c^c'][dd'])z/!<)![ee']/ | %52
 !>![ee']4 z!p! z/ [Gceg]<!<(![Gceg][Gceg]/!<)! | (!>![=Ace=a]8 | %54
 !arpeggio!.[=Ad=ad']) z !>![Gdg]2 (3z [G_dg][Gdg] (3:2:4([Gdg][_Ad_a])z/[Gdg]/ | %55
 ([Gcg]/[cc']/) z !>![Fcf]2 (3z [Fcf][Fcf]!<(! ([=Ec=e]/[Fcf]/[Gcg]/)!<)!z/4[Fcf]/4 | %56
 .[=Ec=e]2 !>![_E_e]4- [Ee]>[Ee] | =B4 z4 | z8 | %59
 z4 (3z ([=B=b]!<(![cc'] (3:2:4[^cc'][dd'])z/[ee']/!<)! | %60
 !>![ee']4 z!p! z/ [Gceg]<!<(![Gceg][Gceg]/!<)! | %61
 ((!>![Ac-e-a]4 (3.[Gceg]))!<(! [=B=b][cc'] ([^c^c']/[dd']/!<)![ff']/)z/4[ee']/4 | %62
 !>![ee']4 z!p! z/!<(! [Gceg]<[Gceg]!<)![Gceg]/ | !>![=Ae=a]8 | %64
!ff! (!>![B_db]4 [ABda]2 [_GBd_g]>[FBdf]) | ((!>![FB-_df]4 [=EB=e]2)) z2 | %66
!f! ([A_c_fa]4 [_GA_c_g]2 [_FAc_f]>[EAce]) | ((!>![EA-_ce]4 [=DA=d]2)) z2 | !>![=Ge=g]8 | %69
[K:Eb] (!>!g4- g3 f) |!p! (f4 e4) | (ef/e/ _d>e f2 A2) | !>![Ec]8- | [Ec]8 | %74
"_smorz" (c3 =B d2) z2 | z8 |"^sotto voce" c8- |!<(! (c4 =d4!<)! | [=EG=e]8) | %79
!p!"^poco rallent"[Q:1/4=110]"^."!<(! (c6 [=Bd]2!<)! | %80
!ff! .[=EGc=e])"_ed appassionato"[Q:1/4=160]"^a tempo" (a'/g'/ =e'/c'/_d'/c'/ _b/g/a/g/ =e/c/_d/c/ | %81
 B/G/A/G/ =E/C/_D/C/[I:staff +1] B,/G,/A,/G,/ =E,/C,/_D,/C,/) | .[C,F,=A,C]4 .[C,F,_A,C]4 | %83
 .[C,F,G,C]2 .[C,=E,G,C]2[I:staff -1] z4 |] %84
V:2
 z"^legatissimo" (!>!A/G/ !>!F/D/E/D/ !>!=B,/G,/A,/G,/ !>!F,/D,/E,/D,/ | %1
 !>!=B,,/G,,/A,,/G,,/ !>!F,,/D,,/E,,/D,,/ !>!C,,/G,,,/C,,/G,,,/ !>!C,,/G,,,/C,,/G,,,/ | %2
 .=B,,,) (!>!A/G/ !>!F/D/E/D/ !>!=B,/G,/A,/G,/ !>!F,/D,/E,/D,/ | %3
 !>!=B,,/G,,/A,,/G,,/ !>!F,,/D,,/E,,/D,,/ !>!C,,/G,,,/C,,/G,,,/ !>!C,,/G,,,/C,,/G,,,/ | %4
 .=B,,,)[K:treble] (!>!a/g/ !>!f/d/e/d/ !>!=B/G/A/G/ !>!F/D/E/D/ | %5
[K:bass] !>!=B,/G,/A,/G,/ !>!F,/D,/E,/D,/ !>!B,,/G,,/A,,/G,,/ !>!F,,/D,,/E,,/D,,/ | %6
 C,,/=B,,,/)(G,,/F,,/ E,,/D,,/E,,/D,,/"^cresc." C,,/B,,,/)(_B,,/A,,/ G,,/F,,/G,,/F,,/ | %7
!<(! E,,/D,,/)(E,/D,/!<)!!>(! C,/=B,,/C,/B,,/ A,,/G,,/A,,/G,,/ F,,/E,,/F,,/!>)!E,,/) | %8
!<(! (C,,/G,,/C,/D,/ E,/G,/C/D/!<)!!>(! E/D/C/G,/ E,/D,/C,/G,,/)!>)! | %9
 (C,,/!<(!G,,/C,/!<)!D,/!>(! E,/D,/!>)!C,/G,,/) (C,,/!<(!G,,/C,/!<)!D,/!>(! E,/D,/!>)!C,/G,,/) | %10
 (C,,/!<(!G,,/C,/D,/ E,/G,/C/D/!<)!!>(! E/D/C/G,/ E,/D,/C,/!>)!G,,/) | %11
 (C,,/!<(!G,,/C,/!<)!D,/!>(! E,/D,/!>)!C,/G,,/) (C,,/!<(!G,,/C,/!<)!D,/!>(! E,/D,/!>)!C,/G,,/) | %12
 (C,,/!<(!G,,/C,/D,/ E,/G,/C/D/!<)!!>(! E/D/C/G,/ E,/D,/C,/!>)!G,,/) | %13
 (C,,/^F,,/C,/D,/ E,/D,/C,/F,,/) (C,,/F,,/C,/D,/ E,/D,/C,/F,,/) | %14
 (=B,,,/!<(!=B,,/D,/!<)!G,/ D/G,/D,/B,,/) (_B,,,/_B,,/_D,/G,/ _D/G,/D,/B,,/) | %15
 (=A,,,/=A,,/C,/F,/ C/F,/C,/A,,/) (_A,,,/_A,,/C,/F,/ C/F,/C,/A,,/) | %16
 (G,,,/!<(!G,,/C,/=B,,/ _D,/C,/=D,/^C,/ E,/D,/=E,/^D,/ F,/E,/_G,/F,/!<)! | %17
!>(! =G,/^F,/A,/G,/ _B,/A,/G,/=F,/ E,/D,/C,/=B,,/ A,,/G,,/!>)!F,,/D,,/) | %18
!<(! (C,,/G,,/C,/D,/ E,/G,/C/D/!<)!!>(! E/D/C/G,/ E,/D,/C,/G,,/)!>)! | %19
 (C,,/!<(!G,,/C,/!<)!D,/!>(! E,/D,/!>)!C,/G,,/) (C,,/!<(!G,,/C,/!<)!D,/!>(! E,/D,/!>)!C,/G,,/) | %20
 (C,,/!<(!G,,/C,/D,/ E,/G,/C/D/!<)!!>(! E/D/C/G,/ E,/D,/C,/!>)!G,,/) | %21
 (C,,/!<(!G,,/C,/!<)!D,/!>(! E,/D,/!>)!C,/G,,/) (C,,/!<(!G,,/C,/!<)!D,/!>(! E,/D,/!>)!C,/G,,/) | %22
 (C,,/!<(!G,,/C,/D,/ E,/G,/C/D/!<)!!>(! E/D/C/G,/ E,/D,/C,/!>)!G,,/) | %23
 (C,,/!<(!F,,/C,/!<)!D,/!>(! E,/D,/!>)!C,/F,,/) (C,,/!<(!F,,/C,/!<)!D,/!>(! E,/D,/!>)!C,/F,,/) | %24
 (D,,/B,,/_C,/B,,/ B,/B,,/C,/B,,/) (D,,/B,,/C,/B,,/ B,/B,,/C,/B,,/) | %25
 (=E,,/B,,/=C,/B,,/ B,/B,,/C,/B,,/) (F,,/B,,/B,/B,,/) (_G,,/B,,/B,/B,,/) | %26
 (F,,/!<(!B,,/D,/F,/ B,/D/G/>F/)!<)!!>(! (F/D/B,/G,/!>)! F,/E,/C,/F,,/ | %27
 .B,,,/) (_D,/C,/_C,/ B,,/=C,/_C,/B,,/ =A,,/C,/B,,/A,,/ ^G,,/B,,/A,,/G,,/ | %28
 .^G,,,) (^^F,,/^G,,/ =B,,/^D,/^A,,/B,,/ D,/^G,/^^C,/D,/ G,/=B,/^^F,/G,/ | %29
 .^D,,/) (^D/^E,/^F,/ ^A,/D/^^C,/^D,/ F,/A,/^^G,,/^A,,/ D,/F,/^E,,/^F,,/ | %30
 .^F,,,) (^E,,/^F,,/ =A,,/^C,/^G,,/A,,/ C,/^F,/^B,,/C,/ F,/=A,/^E,/F,/ | %31
 .^C,,/) (^C/^D,/=E,/ ^G,/C/^B,,/^C,/ E,/G,/^^F,,/^G,,/ C,/E,/^D,,/=E,,/ | %32
 .^B,,,/)!>(! (^D/^^F,/!>)!^G,/!>(! =A,/G,/^F,/=E,/ ^D,/^C,/^B,,/!>)!=A,,/ ^^F,,/^G,,/^D,,/G,,/ | %33
 .=D,,/)!>(! (=F/=A,/!>)!_B,/!>(! _C/B,/_A,/_G,/ F,/E,/=D,/_C,/!>)! =A,,/B,,/F,,/B,,/ | %34
 .=E,,/) (G/=B,/C/ _D/C/_B,/A,/ G,/F,/=E,/G,/ F,/E,/_D,/C,/ | %35
 =B,,/C,/_D,/C,/ _B,,/A,,/G,,/F,,/ =E,,/_D,,/C,,/=B,,,/ C,,/_B,,,/A,,,/G,,,/) | %36
 (F,,,/C,,/F,,/G,,/ A,,/C,/F,/G,/!<(! A,/C/F/!<)!G/!>(! A/G/F/!>)!C/ | %37
 _D/F/D/A,/ F,/_D,/A,,/F,,/ _D,,/A,,,/D,,/F,,/ D,,/A,,,/D,,/F,,/) | %38
 (F,,,/C,,/F,,/G,,/ A,,/C,/F,/G,/ A,/C/F/G/ A/G/F/C/ | %39
 =D/F/D/C/ A,/F,/=D,/C,/ A,,/F,,/=D,,/C,,/ A,,,/C,,/D,,/A,,/) | %40
 !wedge![G,,,G,,] (!>!A/G/ !>!F/D/E/D/ !>!=B,/G,/A,/G,/ !>!F,/D,/E,/D,/ | %41
 !>!=B,,/G,,/A,,/G,,/ !>!F,,/D,,/E,,/D,,/ !>!C,,/G,,,/C,,/G,,,/ !>!C,,/G,,,/C,,/G,,,/ | %42
 .=B,,,)!f! (!>!A/G/ !>!F/D/E/D/ !>!=B,/G,/A,/G,/ !>!F,/D,/E,/D,/ | %43
 !>!=B,,/G,,/A,,/G,,/ !>!F,,/D,,/E,,/D,,/ !>!C,,/G,,,/C,,/G,,,/ !>!C,,/G,,,/C,,/G,,,/ | %44
 .=B,,)[K:treble] (!>!a/g/ !>!f/d/e/d/ !>!=B/G/A/G/ !>!F/D/E/D/ | %45
[K:bass] !>!=B,/G,/A,/G,/ !>!F,/D,/E,/D,/ !>!B,,/G,,/A,,/G,,/ !>!F,,/D,,/E,,/D,,/ | %46
 C,,/=B,,,/)(G,,/F,,/ E,,/D,,/E,,/D,,/"^cresc." C,,/B,,,/)(_B,,/A,,/ G,,/F,,/G,,/F,,/ | %47
!<(! E,,/D,,/)(E,/D,/!<)!!>(! C,/=B,,/C,/B,,/ A,,/G,,/A,,/G,,/ F,,/E,,/F,,/!>)!E,,/) | %48
!<(! (C,,/G,,/C,/D,/ E,/G,/C/D/!<)!!>(! E/D/C/G,/ E,/D,/C,/G,,/)!>)! | %49
 (C,,/!<(!G,,/C,/!<)!D,/!>(! E,/D,/!>)!C,/G,,/) (C,,/!<(!G,,/C,/!<)!D,/!>(! E,/D,/!>)!C,/G,,/) | %50
 (C,,/!<(!G,,/C,/D,/ E,/G,/C/D/!<)!!>(! E/D/C/G,/ E,/D,/C,/!>)!G,,/) | %51
 (C,,/!<(!G,,/C,/!<)!D,/!>(! E,/D,/!>)!C,/G,,/)!f! (C,,/!<(!G,,/C,/!<)!D,/!>(! E,/D,/!>)!C,/G,,/) | %52
 (C,,/!<(!G,,/C,/D,/ E,/G,/C/D/!<)!!>(! E/D/C/G,/ E,/D,/C,/!>)!G,,/) | %53
 (C,,/^F,,/C,/D,/ E,/D,/C,/F,,/) (C,,/F,,/C,/D,/ E,/D,/C,/F,,/) | %54
 (=B,,,/!<(!=B,,/D,/!<)!G,/ D/G,/D,/B,,/) (_B,,,/_B,,/_D,/G,/ _D/G,/D,/B,,/) | %55
 (=A,,,/=A,,/C,/F,/ C/F,/C,/A,,/) (_A,,,/_A,,/C,/F,/ C/F,/C,/A,,/) | %56
 (G,,,/!<(!G,,/C,/=B,,/ _D,/C,/=D,/^C,/ E,/D,/=E,/^D,/ F,/E,/_G,/F,/!<)! | %57
!>(! G,/^F,/A,/G,/ _B,/A,/G,/=F,/ E,/D,/C,/=B,,/ A,,/G,,/!>)!F,,/D,,/) | %58
!<(! (C,,/G,,/C,/D,/ E,/G,/C/D/!<)!!>(! E/D/C/G,/ E,/D,/C,/G,,/)!>)! | %59
 (C,,/!<(!G,,/C,/!<)!D,/!>(! E,/D,/!>)!C,/G,,/)!f! (C,,/!<(!G,,/C,/!<)!D,/!>(! E,/D,/!>)!C,/G,,/) | %60
 (C,,/!<(!G,,/C,/D,/ E,/G,/C/D/!<)!!>(! E/D/C/G,/ E,/D,/C,/!>)!G,,/) | %61
 (C,,/!<(!G,,/C,/!<)!D,/!>(! E,/D,/!>)!C,/G,,/)!f! (C,,/!<(!G,,/C,/!<)!D,/!>(! E,/D,/!>)!C,/G,,/) | %62
 (C,,/!<(!G,,/C,/D,/ E,/G,/C/D/!<)!!>(! E/D/C/G,/ E,/D,/C,/!>)!G,,/) | %63
 (C,,/!<(!^F,,/C,/D,/ E,/D,/C,/F,,/) (C,,/"^cresc."F,,/C,/D,/ E,/D,/C,/!<)!F,,/) | %64
 (_D,,/!<(!_D,/_G,/A,/!<)!!>(! B,/A,/G,/!>)!D,/) (D,,/!<(!D,/G,/A,/!<)!!>(! B,/A,/G,/!>)!D,/) | %65
!<(! (_D,,/_D,/=G,/B,/!<)!!>(! _D/C/B,/A,/ G,/F,/=E,/_D,/ C,/B,,/A,,/!>)!G,,/) | %66
 (_C,,/!<(!_C,/_F,/!<)!_G,/!>(! A,/G,/F,/!>)!C,/) (C,,/!<(!C,/F,/!<)!G,/!>(! A,/G,/F,/!>)!C,/) | %67
 (_C,,/!<(!_C,/=F,/!<)!A,/!>(! _C/B,/A,/_G,/ F,/E,/=D,/!>)!C,/ B,,/A,,/_G,,/F,,/) | %68
 (B,,,/!p!!<(!B,,/E,/!<)!F,/!>(! =G,/F,/E,/!>)!B,,/) (B,,,/!<(!B,,/E,/!<)!F,/!>(! =G,/F,/E,/!>)!B,,/) | %69
[K:Eb] (=B,,,/!<(!=B,,/D,/!<)!G,/!>(! D/G,/D,/!>)!B,,/) (B,,,/!<(!B,,/D,/!<)!G,/!>(! D/G,/D,/!>)!B,,/) | %70
 (C,,/!<(!G,,/C,/D,/ E,/G,/C/D/!<)!!>(! E/D/C/G,/ E,/D,/C,/!>)!G,,/) | %71
 (F,,,/!<(!_D,,/F,,/G,,/ A,,/_D,/F,/G,/!<)!!>(! A,/G,/F,/D,/ A,,/F,,/D,,/!>)!A,,,/ | %72
 .G,,,) (=E,,/^D,,/ F,,/E,,/_G,,/F,,/ =G,,/^F,,/A,,/G,,/ =A,,/^G,,/B,,/A,,/ | %73
 _C,/B,,/=C,/=B,,/ _D,/C,/=D,/^C,/ E,/D,/=E,/^D,/ F,/E,/_G,/F,/ | %74
 =G,/^F,/A,/G,/ _B,/A,/G,/=F,/ E,/D,/F,/E,/ G,/F,/E,/D,/ | %75
 C,/=B,,/D,/C,/ B,,/_A,,/G,,/^F,,/ G,,/A,,/=F,,/G,,/ E,,/F,,/D,,/E,,/ | %76
 .C,,) (_D/C/ _B,/G,/A,/G,/ =E,/C,/_D,/C,/ _B,,/G,,/A,,/G,,/ | %77
!pp! F,,/C,,/F,,/C,,/ F,,/C,,/F,,/C,,/ F,,/C,,/F,,/C,,/ F,,/C,,/F,,/C,,/ | %78
!>(! .C,) (_D/C/ B,/G,/A,/G,/ =E,/C,/_D,/C,/ B,,/G,,/A,,/!>)!G,,/ | %79
 F,,/C,,/F,,/C,,/ F,,/C,,/F,,/C,,/ F,,/C,,/F,,/C,,/ F,,/C,,/F,,/C,,/ | %80
 .C,)[K:treble] (a/g/ =e/c/_d/c/ _B/G/A/G/ =E/C/D/C/ | %81
[K:bass] B,/G,/A,/G,/ =E,/C,/_D,/C,/ B,,/G,,/A,,/G,,/ =E,,/C,,/_D,,/C,,/) | %82
 .[F,,,F,,]4 .[F,,,F,,]4 | .[C,,,C,,]2 .[C,,,C,,]2 z4 |] %84
V:3
 x8 | x8 | x8 | x8 | x8 | x8 | x8 | x8 | x8 | x8 | x8 | x8 | x8 | x8 | x8 | x8 | x8 | %17
 ((!>![Ee]2 [Dd]2)) z4 | x8 | x8 | x8 | x8 | x8 | x8 | x8 | x8 | z6 (d'>c' | .[dfb]) z z2 z4 | x8 | %29
 x8 | x8 | x8 | x8 | x8 | x8 | x8 | x8 | x8 | x8 | x8 | x8 | x8 | x8 | x8 | x8 | x8 | x8 | x8 | %48
 x8 | x8 | x8 | x8 | x8 | x8 | x8 | x8 | z2 c6 | ((!>![Ee]2 [Dd]2)) z4 | x8 | x8 | x8 | x8 | x8 | %63
 x8 | x8 | x8 | x8 | x8 | x8 |[K:Eb] G4 !>!G4 | [Gc]8 | [FA]8 | x8 | x8 | [DF]6 z2 | x8 | %76
 C z z2 z4 | [FA]8 | x8 | [CA]8 | x8 | x8 | x8 | x8 |] %84
V:4
 x8 | x8 | x8 | x8 | x8 | x8 | x8 | x8 | x8 | x8 | x8 | x8 | x8 | x8 | x8 | x8 | x8 | x8 | x8 | %19
 x8 | x8 | x8 | x8 | x8 | x8 | x8 | x8 | x8 | x8 | x8 | x8 | x8 | x8 | x8 | x8 | x8 | x8 | x8 | %38
 x8 | x8 | x8 | x8 | x8 | x8 | x8 | x8 | x8 | x8 | x8 | x8 | x8 | x8 | x8 | x8 | x8 | x8 | x8 | %57
 x8 | x8 | x8 | x8 | x8 | x8 | x8 | x8 | x8 | x8 | x8 | x8 |[K:Eb] d8 | x8 | x8 | x8 | x8 | x8 | %75
 x8 | x8 | x8 | x8 | (G4 F4) | x8 | x8 | x8 | x8 |] %84

